exported-svg/save.svg

<svg height="24" viewBox="0 0 24 24" width="24" xmlns="http://www.w3.org/2000/svg"><path d="m8 4v4h7.5c.2761424 0 .5.22385763.5.5s-.2238576.5-.5.5h-8c-.27614237 0-.5-.22385763-.5-.5v-4.5h-1.5c-.82842712 0-1.5.67157288-1.5 1.5v14c0 .8284271.67157288 1.5 1.5 1.5h1.5v-7.5c0-.2761424.22385763-.5.5-.5h10c.2761424 0 .5.2238576.5.5v7.5h1.5c.8284271 0 1.5-.6715729 1.5-1.5v-10.79289322l-4.7071068-4.70710678zm9 17v-7h-9v7zm2.5 1h-14c-1.38071187 0-2.5-1.1192881-2.5-2.5v-14c0-1.38071187 1.11928813-2.5 2.5-2.5h11c.1326082 0 .2597852.05267842.3535534.14644661l5 5c.0937682.09376819.1464466.22094515.1464466.35355339v11c0 1.3807119-1.1192881 2.5-2.5 2.5z"/></svg>

<?xml version="1.0" encoding="UTF-8"?>
<svg width="24px" height="24px" viewBox="0 0 24 24" version="1.1" xmlns="http://www.w3.org/2000/svg" xmlns:xlink="http://www.w3.org/1999/xlink">
    <!-- Generator: Sketch 55.2 (78181) - https://sketchapp.com -->
    <title>save</title>
    <desc>Created with Sketch.</desc>
    <g id="save" stroke="none" stroke-width="1" fill="none" fill-rule="evenodd">
        <path d="M8,4 L8,8 L15.5,8 C15.7761424,8 16,8.22385763 16,8.5 C16,8.77614237 15.7761424,9 15.5,9 L7.5,9 C7.22385763,9 7,8.77614237 7,8.5 L7,4 L5.5,4 C4.67157288,4 4,4.67157288 4,5.5 L4,19.5 C4,20.3284271 4.67157288,21 5.5,21 L7,21 L7,13.5 C7,13.2238576 7.22385763,13 7.5,13 L17.5,13 C17.7761424,13 18,13.2238576 18,13.5 L18,21 L19.5,21 C20.3284271,21 21,20.3284271 21,19.5 L21,8.70710678 L16.2928932,4 L8,4 Z M17,21 L17,14 L8,14 L8,21 L17,21 Z M19.5,22 L5.5,22 C4.11928813,22 3,20.8807119 3,19.5 L3,5.5 C3,4.11928813 4.11928813,3 5.5,3 L16.5,3 C16.6326082,3 16.7597852,3.05267842 16.8535534,3.14644661 L21.8535534,8.14644661 C21.9473216,8.2402148 22,8.36739176 22,8.5 L22,19.5 C22,20.8807119 20.8807119,22 19.5,22 Z" id="Combined-Shape" fill="#000000" fill-rule="nonzero"></path>
    </g>
</svg>
